;FLAVOR:UltiGCode
;TIME:3690
;MATERIAL:2551
;MATERIAL2:0
;NOZZLE_DIAMETER:0.000000
;NOZZLE_DIAMETER2:0.000000

;Layer count: 163
;LAYER:0
M107
G0 F9000 X93.700 Y88.701 Z0.300
;TYPE:SKIRT
G1 F1200 X129.300 Y88.701 E4.27200
G1 X129.300 Y134.300 E9.74388
G1 X93.700 Y134.300 E14.01588
G1 X93.700 Y88.701 E19.48776
G0 F9000 X94.100 Y89.101
G1 F1200 X128.900 Y89.101 E23.66376
G1 X128.900 Y133.900 E29.03964
G1 X94.100 Y133.900 E33.21564
G1 X94.100 Y89.101 E38.59152
G0 F9000 X94.500 Y89.501
G1 F1200 X128.500 Y89.501 E42.67152
G1 X128.500 Y133.500 E47.95140
G1 X94.500 Y133.500 E52.03140
G1 X94.500 Y89.501 E57.31128
G0 F9000 X94.900 Y89.901
G1 F1200 X128.100 Y89.901 E61.29528
G1 X128.100 Y133.100 E66.47916
G1 X94.900 Y133.100 E70.46316
G1 X94.900 Y89.901 E75.64704
G0 F9000 X95.300 Y90.301
G1 F1200 X127.700 Y90.301 E79.53504
G1 X127.700 Y132.700 E84.62292
G1 X95.300 Y132.700 E88.51092
G1 X95.300 Y90.301 E93.59880
G0 F9000 X95.700 Y90.701
G1 F1200 X127.300 Y90.701 E97.39080
G1 X127.300 Y132.300 E102.38268
G1 X95.700 Y132.300 E106.17468
G1 X95.700 Y90.701 E111.16656
G0 F9000 X96.100 Y91.101
G1 F1200 X126.900 Y91.101 E114.86256
G1 X126.900 Y131.900 E119.75844
G1 X96.100 Y131.900 E123.45444
G1 X96.100 Y91.101 E128.35032
G0 F9000 X96.500 Y91.501
G1 F1200 X126.500 Y91.501 E131.95032
G1 X126.500 Y131.500 E136.75020
G1 X96.500 Y131.500 E140.35020
G1 X96.500 Y91.501 E145.15008
G0 F9000 X96.900 Y91.901
G1 F1200 X126.100 Y91.901 E148.65408
G1 X126.100 Y131.100 E153.35796
G1 X96.900 Y131.100 E156.86196
G1 X96.900 Y91.901 E161.56584
G0 F9000 X97.300 Y92.301
G1 F1200 X125.700 Y92.301 E164.97384
G1 X125.700 Y130.700 E169.58172
G1 X97.300 Y130.700 E172.98972
G1 X97.300 Y92.301 E177.59760
G0 F9000 X97.700 Y92.701
G1 F1200 X125.300 Y92.701 E180.90960
G1 X125.300 Y130.300 E185.42148
G1 X97.700 Y130.300 E188.73348
G1 X97.700 Y92.701 E193.24536
G0 F9000 X98.100 Y93.101
G1 F1200 X124.900 Y93.101 E196.46136
G1 X124.900 Y129.900 E200.87724
G1 X98.100 Y129.900 E204.09324
G1 X98.100 Y93.101 E208.50912
G0 F9000 X98.500 Y93.501
G1 F1200 X124.500 Y93.501 E211.62912
G1 X124.500 Y129.500 E215.94900
G1 X98.500 Y129.500 E219.06900
G1 X98.500 Y93.501 E223.38888
G0 F9000 X98.900 Y93.901
G1 F1200 X124.100 Y93.901 E226.41288
G1 X124.100 Y129.100 E230.63676
G1 X98.900 Y129.100 E233.66076
G1 X98.900 Y93.901 E237.88464
G0 F9000 X99.300 Y94.301
G1 F1200 X123.700 Y94.301 E240.81264
G1 X123.700 Y128.700 E244.94052
G1 X99.300 Y128.700 E247.86852
G1 X99.300 Y94.301 E251.99640
G0 F9000 X99.700 Y94.701
G1 F1200 X123.300 Y94.701 E254.82840
G1 X123.300 Y128.300 E258.86028
G1 X99.700 Y128.300 E261.69228
G1 X99.700 Y94.701 E265.72416
G0 F9000 X100.100 Y95.101
G1 F1200 X122.900 Y95.101 E268.46016
G1 X122.900 Y127.900 E272.39604
G1 X100.100 Y127.900 E275.13204
G1 X100.100 Y95.101 E279.06792
G0 F9000 X100.500 Y95.501
G1 F1200 X122.500 Y95.501 E281.70792
G1 X122.500 Y127.500 E285.54780
G1 X100.500 Y127.500 E288.18780
G1 X100.500 Y95.501 E292.02768
G0 F9000 X100.900 Y95.901
G1 F1200 X122.100 Y95.901 E294.57168
G1 X122.100 Y127.100 E298.31556
G1 X100.900 Y127.100 E300.85956
G1 X100.900 Y95.901 E304.60344
G0 F9000 X101.300 Y96.301
G1 F1200 X121.700 Y96.301 E307.05144
G1 X121.700 Y126.700 E310.69932
G1 X101.300 Y126.700 E313.14732
G1 X101.300 Y96.301 E316.79520
G0 F9000 X102.100 Y97.101
;TYPE:WALL-INNER
G1 F1200 X120.900 Y97.101 E319.05120
G1 X120.900 Y125.900 E322.50708
G1 X102.100 Y125.900 E324.76308
G1 X102.100 Y97.101 E328.21896
G0 F9000 X101.700 Y96.701
;TYPE:WALL-OUTER
G1 F1200 X121.300 Y96.701 E330.57096
G1 X121.300 Y126.300 E334.12284
G1 X101.700 Y126.300 E336.47484
G1 X101.700 Y96.701 E340.02672
G0 F9000 X102.239 Y97.430
;TYPE:SKIN
G1 F900 X120.759 Y115.951 E343.16975
G0 F9000 X120.759 Y116.517
G1 F900 X102.239 Y97.996 E346.31279
G0 F9000 X102.239 Y98.562
G1 F900 X120.759 Y117.082 E349.45573
G0 F9000 X120.759 Y117.648
G1 F900 X102.239 Y99.127 E352.59877
G0 F9000 X102.239 Y99.693
G1 F900 X120.759 Y118.214 E355.74180
G0 F9000 X120.759 Y118.779
G1 F900 X102.239 Y100.259 E358.88475
G0 F9000 X102.239 Y100.824
G1 F900 X120.759 Y119.345 E362.02778
G0 F9000 X120.759 Y119.911
G1 F900 X102.239 Y101.390 E365.17081
G0 F9000 X102.239 Y101.956
G1 F900 X120.759 Y120.476 E368.31376
G0 F9000 X120.759 Y121.042
G1 F900 X102.239 Y102.521 E371.45680
G0 F9000 X102.239 Y103.087
G1 F900 X120.759 Y121.608 E374.59983
G0 F9000 X120.759 Y122.173
G1 F900 X102.239 Y103.653 E377.74278
G0 F9000 X102.239 Y104.219
G1 F900 X120.759 Y122.739 E380.88573
G0 F9000 X120.759 Y123.305
G1 F900 X102.239 Y104.784 E384.02876
G0 F9000 X102.239 Y105.350
G1 F900 X120.759 Y123.870 E387.17171
G0 F9000 X120.759 Y124.436
G1 F900 X102.239 Y105.916 E390.31466
G0 F9000 X102.239 Y106.481
G1 F900 X120.759 Y125.002 E393.45769
G0 F9000 X120.759 Y125.568
G1 F900 X102.239 Y107.047 E396.60072
G0 F9000 X102.239 Y107.613
G1 F900 X120.384 Y125.758 E399.68003
G0 F9000 X119.819 Y125.758
G1 F900 X102.239 Y108.178 E402.66345
G0 F9000 X102.239 Y108.744
G1 F900 X119.253 Y125.758 E405.55083
G0 F9000 X118.687 Y125.758
G1 F900 X102.239 Y109.310 E408.34214
G0 F9000 X102.239 Y109.875
G1 F900 X118.122 Y125.758 E411.03758
G0 F9000 X117.556 Y125.758
G1 F900 X102.239 Y110.441 E413.63696
G0 F9000 X102.239 Y111.007
G1 F900 X116.990 Y125.758 E416.14029
G0 F9000 X116.425 Y125.758
G1 F900 X102.239 Y111.572 E418.54773
G0 F9000 X102.239 Y112.138
G1 F900 X115.859 Y125.758 E420.85912
G0 F9000 X115.293 Y125.758
G1 F900 X102.239 Y112.704 E423.07446
G0 F9000 X102.239 Y113.270
G1 F900 X114.728 Y125.758 E425.19383
G0 F9000 X114.162 Y125.758
G1 F900 X102.239 Y113.835 E427.21723
G0 F9000 X102.239 Y114.401
G1 F900 X113.596 Y125.758 E429.14458
G0 F9000 X113.031 Y125.758
G1 F900 X102.239 Y114.967 E430.97595
G0 F9000 X102.239 Y115.532
G1 F900 X112.465 Y125.758 E432.71136
G0 F9000 X111.899 Y125.758
G1 F900 X102.239 Y116.098 E434.35072
G0 F9000 X102.239 Y116.664
G1 F900 X111.333 Y125.758 E435.89402
G0 F9000 X110.768 Y125.758
G1 F900 X102.239 Y117.229 E437.34144
G0 F9000 X102.239 Y117.795
G1 F900 X110.202 Y125.758 E438.69281
G0 F9000 X109.636 Y125.758
G1 F900 X102.239 Y118.361 E439.94812
G0 F9000 X102.239 Y118.926
G1 F900 X109.071 Y125.758 E441.10755
G0 F9000 X108.505 Y125.758
G1 F900 X102.239 Y119.492 E442.17092
G0 F9000 X102.239 Y120.058
G1 F900 X107.939 Y125.758 E443.13825
G0 F9000 X107.374 Y125.758
G1 F900 X102.239 Y120.623 E444.00969
G0 F9000 X102.239 Y121.189
G1 F900 X106.808 Y125.758 E444.78507
G0 F9000 X106.242 Y125.758
G1 F900 X102.239 Y121.755 E445.46440
G0 F9000 X102.239 Y122.320
G1 F900 X105.677 Y125.758 E446.04785
G0 F9000 X105.111 Y125.758
G1 F900 X102.239 Y122.886 E446.53524
G0 F9000 X102.239 Y123.452
G1 F900 X104.545 Y125.758 E446.92659
G0 F9000 X103.980 Y125.758
G1 F900 X102.239 Y124.018 E447.22196
G0 F9000 X102.239 Y124.583
G1 F900 X103.414 Y125.758 E447.42136
G0 F9000 X102.848 Y125.758
G1 F900 X102.239 Y125.149 E447.52471
G0 F9000 X120.759 Y115.385
G1 F900 X102.615 Y97.241 E450.60385
G0 F9000 X103.181 Y97.241
G1 F900 X120.759 Y114.819 E453.58694
G0 F9000 X120.759 Y114.254
G1 F900 X103.746 Y97.241 E456.47414
G0 F9000 X104.312 Y97.241
G1 F900 X120.759 Y113.688 E459.26529
G0 F9000 X120.759 Y113.122
G1 F900 X104.878 Y97.241 E461.96038
G0 F9000 X105.443 Y97.241
G1 F900 X120.759 Y112.557 E464.55959
G0 F9000 X120.759 Y111.991
G1 F900 X106.009 Y97.241 E467.06275
G0 F9000 X106.575 Y97.241
G1 F900 X120.759 Y111.425 E469.46986
G0 F9000 X120.759 Y110.860
G1 F900 X107.140 Y97.241 E471.78108
G0 F9000 X107.706 Y97.241
G1 F900 X120.759 Y110.294 E473.99625
G0 F9000 X120.759 Y109.728
G1 F900 X108.272 Y97.241 E476.11536
G0 F9000 X108.837 Y97.241
G1 F900 X120.759 Y109.163 E478.13859
G0 F9000 X120.759 Y108.597
G1 F900 X109.403 Y97.241 E480.06577
G0 F9000 X109.969 Y97.241
G1 F900 X120.759 Y108.031 E481.89689
G0 F9000 X120.759 Y107.466
G1 F900 X110.534 Y97.241 E483.63213
G0 F9000 X111.100 Y97.241
G1 F900 X120.759 Y106.900 E485.27132
G0 F9000 X120.759 Y106.334
G1 F900 X111.666 Y97.241 E486.81445
G0 F9000 X112.231 Y97.241
G1 F900 X120.759 Y105.769 E488.26170
G0 F9000 X120.759 Y105.203
G1 F900 X112.797 Y97.241 E489.61290
G0 F9000 X113.363 Y97.241
G1 F900 X120.759 Y104.637 E490.86804
G0 F9000 X120.759 Y104.071
G1 F900 X113.929 Y97.241 E492.02713
G0 F9000 X114.494 Y97.241
G1 F900 X120.759 Y103.506 E493.09033
G0 F9000 X120.759 Y102.940
G1 F900 X115.060 Y97.241 E494.05749
G0 F9000 X115.626 Y97.241
G1 F900 X120.759 Y102.374 E494.92859
G0 F9000 X120.759 Y101.809
G1 F900 X116.191 Y97.241 E495.70380
G0 F9000 X116.757 Y97.241
G1 F900 X120.759 Y101.243 E496.38296
G0 F9000 X120.759 Y100.677
G1 F900 X117.323 Y97.241 E496.96607
G0 F9000 X117.888 Y97.241
G1 F900 X120.759 Y100.112 E497.45330
G0 F9000 X120.759 Y99.546
G1 F900 X118.454 Y97.241 E497.84447
G0 F9000 X119.020 Y97.241
G1 F900 X120.759 Y98.980 E498.13959
G0 F9000 X120.759 Y98.415
G1 F900 X119.585 Y97.241 E498.33882
G0 F9000 X120.151 Y97.241
G1 F900 X120.759 Y97.849 E498.44200
;LAYER:1
M106 S63
G0 F9000 X120.900 Y97.101 Z0.360
;TYPE:WALL-INNER
G1 F1800 X120.900 Y125.900 E499.13318
G1 X102.100 Y125.900 E499.58438
G1 X102.100 Y97.101 E500.27555
G1 X120.900 Y97.101 E500.72675
G0 F9000 X121.300 Y96.701
;TYPE:WALL-OUTER
G1 F1320 X121.300 Y126.300 E501.43713
G1 X101.700 Y126.300 E501.90753
G1 X101.700 Y96.701 E502.61791
G1 X121.300 Y96.701 E503.08831
G0 F9000 X120.758 Y97.312
;TYPE:SKIN
G1 F900 X102.239 Y115.831 E503.71686
G0 F9000 X102.239 Y115.266
G1 F900 X120.265 Y97.240 E504.32868
G0 F9000 X120.758 Y97.878
G1 F900 X102.239 Y116.397 E504.95724
G0 F9000 X102.239 Y116.963
G1 F900 X120.758 Y98.444 E505.58580
G0 F9000 X120.758 Y99.009
G1 F900 X102.239 Y117.528 E506.21435
G0 F9000 X102.239 Y118.094
G1 F900 X120.758 Y99.575 E506.84291
G0 F9000 X120.758 Y100.141
G1 F900 X102.239 Y118.660 E507.47146
G0 F9000 X102.239 Y119.225
G1 F900 X120.758 Y100.706 E508.10002
G0 F9000 X120.758 Y101.272
G1 F900 X102.239 Y119.791 E508.72857
G0 F9000 X102.239 Y114.700
G1 F900 X119.699 Y97.240 E509.32119
G0 F9000 X119.134 Y97.240
G1 F900 X102.239 Y114.134 E509.89460
G0 F9000 X102.239 Y113.569
G1 F900 X118.568 Y97.240 E510.44883
G0 F9000 X118.002 Y97.240
G1 F900 X102.239 Y113.003 E510.98384
G0 F9000 X102.239 Y112.437
G1 F900 X117.437 Y97.240 E511.49966
G0 F9000 X116.871 Y97.240
G1 F900 X102.239 Y111.872 E511.99629
G0 F9000 X102.239 Y111.306
G1 F900 X116.305 Y97.240 E512.47371
G0 F9000 X115.739 Y97.240
G1 F900 X102.239 Y110.740 E512.93191
G0 F9000 X102.239 Y110.175
G1 F900 X115.174 Y97.240 E513.37094
G0 F9000 X114.608 Y97.240
G1 F900 X102.239 Y109.609 E513.79076
G0 F9000 X102.239 Y109.043
G1 F900 X114.042 Y97.240 E514.19136
G0 F9000 X113.477 Y97.240
G1 F900 X102.239 Y108.477 E514.57278
G0 F9000 X102.239 Y107.912
G1 F900 X112.911 Y97.240 E514.93500
G0 F9000 X112.345 Y97.240
G1 F900 X102.239 Y107.346 E515.27801
G0 F9000 X102.239 Y106.780
G1 F900 X111.780 Y97.240 E515.60182
G0 F9000 X111.214 Y97.240
G1 F900 X102.239 Y106.215 E515.90644
G0 F9000 X102.239 Y105.649
G1 F900 X110.648 Y97.240 E516.19185
G0 F9000 X110.083 Y97.240
G1 F900 X102.239 Y105.083 E516.45807
G0 F9000 X102.239 Y104.518
G1 F900 X109.517 Y97.240 E516.70510
G0 F9000 X108.951 Y97.240
G1 F900 X102.239 Y103.952 E516.93291
G0 F9000 X102.239 Y103.386
G1 F900 X108.386 Y97.240 E517.14153
G0 F9000 X107.820 Y97.240
G1 F900 X102.239 Y102.821 E517.33095
G0 F9000 X102.239 Y102.255
G1 F900 X107.254 Y97.240 E517.50117
G0 F9000 X106.688 Y97.240
G1 F900 X102.239 Y101.689 E517.65217
G0 F9000 X102.239 Y101.124
G1 F900 X106.123 Y97.240 E517.78400
G0 F9000 X105.557 Y97.240
G1 F900 X102.239 Y100.558 E517.89662
G0 F9000 X102.239 Y99.992
G1 F900 X104.991 Y97.240 E517.99002
G0 F9000 X104.426 Y97.240
G1 F900 X102.239 Y99.426 E518.06423
G0 F9000 X102.239 Y98.861
G1 F900 X103.860 Y97.240 E518.11925
G0 F9000 X103.294 Y97.240
G1 F900 X102.239 Y98.295 E518.15506
G0 F9000 X102.239 Y97.729
G1 F900 X102.729 Y97.240 E518.17167
G0 F9000 X120.758 Y101.838
G1 F900 X102.239 Y120.357 E518.80023
G0 F9000 X102.239 Y120.923
G1 F900 X120.758 Y102.403 E519.42880
G0 F9000 X120.758 Y102.969
G1 F900 X102.239 Y121.488 E520.05736
G0 F9000 X102.239 Y122.054
G1 F900 X120.758 Y103.535 E520.68591
G0 F9000 X120.758 Y104.100
G1 F900 X102.239 Y122.620 E521.31449
G0 F9000 X102.239 Y123.185
G1 F900 X120.758 Y104.666 E521.94304
G0 F9000 X120.758 Y105.232
G1 F900 X102.239 Y123.751 E522.57160
G0 F9000 X102.239 Y124.317
G1 F900 X120.758 Y105.798 E523.20015
G0 F9000 X120.758 Y106.363
G1 F900 X102.239 Y124.882 E523.82871
G0 F9000 X102.239 Y125.448
G1 F900 X120.758 Y106.929 E524.45727
G0 F9000 X120.758 Y107.495
G1 F900 X102.494 Y125.759 E525.07717
G0 F9000 X103.060 Y125.759
G1 F900 X120.758 Y108.060 E525.67787
G0 F9000 X120.758 Y108.626
G1 F900 X103.625 Y125.759 E526.25939
G0 F9000 X104.191 Y125.759
G1 F900 X120.758 Y109.192 E526.82169
G0 F9000 X120.758 Y109.757
G1 F900 X104.757 Y125.759 E527.36480
G0 F9000 X105.322 Y125.759
G1 F900 X120.758 Y110.323 E527.88871
G0 F9000 X120.758 Y110.889
G1 F900 X105.888 Y125.759 E528.39342
G0 F9000 X106.454 Y125.759
G1 F900 X120.758 Y111.454 E528.87893
G0 F9000 X120.758 Y112.020
G1 F900 X107.019 Y125.759 E529.34525
G0 F9000 X107.585 Y125.759
G1 F900 X120.758 Y112.586 E529.79235
G0 F9000 X120.758 Y113.151
G1 F900 X108.151 Y125.759 E530.22026
G0 F9000 X108.716 Y125.759
G1 F900 X120.758 Y113.717 E530.62898
G0 F9000 X120.758 Y114.283
G1 F900 X109.282 Y125.759 E531.01849
G0 F9000 X109.848 Y125.759
G1 F900 X120.758 Y114.848 E531.38881
G0 F9000 X120.758 Y115.414
G1 F900 X110.414 Y125.759 E531.73991
G0 F9000 X110.979 Y125.759
G1 F900 X120.758 Y115.980 E532.07182
G0 F9000 X120.758 Y116.546
G1 F900 X111.545 Y125.759 E532.38452
G0 F9000 X112.111 Y125.759
G1 F900 X120.758 Y117.111 E532.67803
G0 F9000 X120.758 Y117.677
G1 F900 X112.676 Y125.759 E532.95234
G0 F9000 X113.242 Y125.759
G1 F900 X120.758 Y118.243 E533.20744
G0 F9000 X120.758 Y118.808
G1 F900 X113.808 Y125.759 E533.44335
G0 F9000 X114.373 Y125.759
G1 F900 X120.758 Y119.374 E533.66006
G0 F9000 X120.758 Y119.940
G1 F900 X114.939 Y125.759 E533.85757
G0 F9000 X115.505 Y125.759
G1 F900 X120.758 Y120.505 E534.03587
G0 F9000 X120.758 Y121.071
G1 F900 X116.070 Y125.759 E534.19499
G0 F9000 X116.636 Y125.759
G1 F900 X120.758 Y121.637 E534.33490
G0 F9000 X120.758 Y122.202
G1 F900 X117.202 Y125.759 E534.45561
G0 F9000 X117.767 Y125.759
G1 F900 X120.758 Y122.768 E534.55713
G0 F9000 X120.758 Y123.334
G1 F900 X118.333 Y125.759 E534.63943
G0 F9000 X118.899 Y125.759
G1 F900 X120.758 Y123.899 E534.70255
G0 F9000 X120.758 Y124.465
G1 F900 X119.464 Y125.759 E534.74647
G0 F9000 X120.030 Y125.759
G1 F900 X120.758 Y125.031 E534.77118
G0 F9000 X120.758 Y125.597
G1 F900 X120.596 Y125.759 E534.77667
;LAYER:2
M106 S127
G0 F9000 X120.900 Y125.900 Z0.420
;TYPE:WALL-INNER
G1 F2400 X102.100 Y125.900 E535.22787
G1 X102.100 Y97.101 E535.91905
G1 X120.900 Y97.101 E536.37025
G1 X120.900 Y125.900 E537.06143
G0 F9000 X121.300 Y126.300
;TYPE:WALL-OUTER
G1 F1500 X101.700 Y126.300 E537.53183
G1 X101.700 Y96.701 E538.24220
G1 X121.300 Y96.701 E538.71260
G1 X121.300 Y126.300 E539.42298
G0 F9000 X120.759 Y125.568
;TYPE:SKIN
G1 F900 X102.239 Y107.047 E540.05158
G0 F9000 X102.239 Y107.613
G1 F900 X120.384 Y125.758 E540.66745
G0 F9000 X120.759 Y125.002
G1 F900 X102.239 Y106.481 E541.29605
G0 F9000 X102.239 Y105.916
G1 F900 X120.759 Y124.436 E541.92464
G0 F9000 X120.759 Y123.870
G1 F900 X102.239 Y105.350 E542.55323
G0 F9000 X102.239 Y104.784
G1 F900 X120.759 Y123.305 E543.18184
G0 F9000 X120.759 Y122.739
G1 F900 X102.239 Y104.219 E543.81043
G0 F9000 X102.239 Y103.653
G1 F900 X120.759 Y122.173 E544.43902
G0 F9000 X120.759 Y121.608
G1 F900 X102.239 Y103.087 E545.06762
G0 F9000 X102.239 Y102.521
